icons/clipboard-percent-outline.svg

<svg xmlns="http://www.w3.org/2000/svg" width="24" height="24" viewBox="0 0 24 24">
  <path d="M16,1 C16.5128358,1 16.9355072,1.38604019 16.9932723,1.88337887 L17,2 L17,3 L18,3 C19.5976809,3 20.9036609,4.24891996 20.9949073,5.82372721 L21,6 L21,20 C21,21.5976809 19.75108,22.9036609 18.1762728,22.9949073 L18,23 L6,23 C4.40231912,23 3.09633912,21.75108 3.00509269,20.1762728 L3,20 L3,6 C3,4.40231912 4.24891996,3.09633912 5.82372721,3.00509269 L6,3 L7,3 L7,2 C7,1.48716416 7.38604019,1.06449284 7.88337887,1.00672773 L8,1 L16,1 Z M7,5 L6,5 C5.48716416,5 5.06449284,5.38604019 5.00672773,5.88337887 L5,6 L5,20 C5,20.5128358 5.38604019,20.9355072 5.88337887,20.9932723 L6,21 L18,21 C18.5128358,21 18.9355072,20.6139598 18.9932723,20.1166211 L19,20 L19,6 C19,5.44771525 18.5522847,5 18,5 L17,5 L17,6 C17,6.51283584 16.6139598,6.93550716 16.1166211,6.99327227 L16,7 L8,7 C7.48716416,7 7.06449284,6.61395981 7.00672773,6.11662113 L7,6 L7,5 Z M15.7071068,16.2928932 C16.0976311,16.6834175 16.0976311,17.3165825 15.7071068,17.7071068 C15.3165825,18.0976311 14.6834175,18.0976311 14.2928932,17.7071068 C13.9023689,17.3165825 13.9023689,16.6834175 14.2928932,16.2928932 C14.6834175,15.9023689 15.3165825,15.9023689 15.7071068,16.2928932 Z M15.7071068,10.2928932 C16.0675907,10.6533772 16.0953203,11.2206082 15.7902954,11.6128994 L15.7071068,11.7071068 L9.70710678,17.7071068 C9.31658249,18.0976311 8.68341751,18.0976311 8.29289322,17.7071068 C7.93240926,17.3466228 7.90467972,16.7793918 8.20970461,16.3871006 L8.29289322,16.2928932 L14.2928932,10.2928932 C14.6834175,9.90236893 15.3165825,9.90236893 15.7071068,10.2928932 Z M9.70710678,10.2928932 C10.0976311,10.6834175 10.0976311,11.3165825 9.70710678,11.7071068 C9.31658249,12.0976311 8.68341751,12.0976311 8.29289322,11.7071068 C7.90236893,11.3165825 7.90236893,10.6834175 8.29289322,10.2928932 C8.68341751,9.90236893 9.31658249,9.90236893 9.70710678,10.2928932 Z M15,3 L9,3 L9,5 L15,5 L15,3 Z"/>
</svg>

<svg xmlns="http://www.w3.org/2000/svg" viewBox="0 0 24 24">
  <path d="M16 1a1 1 0 0 1 1 .88V3h1a3 3 0 0 1 3 2.82V20a3 3 0 0 1-2.82 3H6a3 3 0 0 1-3-2.82V6a3 3 0 0 1 2.82-3H7V2a1 1 0 0 1 .88-1H16zM7 5H6a1 1 0 0 0-1 .88V20a1 1 0 0 0 .88 1H18a1 1 0 0 0 1-.88V6a1 1 0 0 0-1-1h-1v1a1 1 0 0 1-.88 1H8a1 1 0 0 1-1-.88V5zm8.7 11.3a1 1 0 1 1-1.4 1.4 1 1 0 0 1 1.4-1.4zm0-6a1 1 0 0 1 .09 1.31l-.08.1-6 6a1 1 0 0 1-1.5-1.32l.08-.1 6-6a1 1 0 0 1 1.42 0zm-6 0a1 1 0 1 1-1.4 1.4 1 1 0 0 1 1.4-1.4zM15 3H9v2h6V3z"/>
</svg>
